X:124
T:O Christmas Tree
T:O Tannenbaum
C:German Folk Song
L:1/4
M:3/4
Q: 1/4=100
P:BABAB
V:S
%%MIDI program 1 69	% Oboe
V:A
%%MIDI program 2 71	% Bassoon
V:T clef=treble_8
%%MIDI program 3 68	% Baritone Sax
%%score (S A) T
K:Fmaj
P:A
[V:S]
 |: C | F3/4 F/4 F G | A3/4 A/4 A3/2 A/2 | G/2 A/2 B E | G F :|
c | c/2 A/2 d3/2 c/2 | c/2 B/2 B3/2 B/2 | B/2 G/2 c3/2 B/2 | B/2 A/2 A
%
w:1~O Christ-mas tree, O Christ-mas tree!
+:Thou tree most fair and love-ly!
+:The sight of thee at Christ-mas-tide
+:Spreads hope and glad-ness far and wide
%
w:2~O Christ-mas tree, O Christ-mas tree!
+:Thou hast a won-drous mes-sage:
+:Thou dost pro-claim the Sa-viour's birth
+:Good will to men and peace on earth
%
[V:A]
 |: C | C3/4 C/4 C E | F3/4 F/4 F3/2 F/2 | F/2 ^F/2 G C | C C :|
F | F/2 F/2 F3/2 F/2 | F/2 E/2 E3/2 G/2 | G/2 E/2 F3/2 E/2 | F/2 F/2 F
[V:T]
 |: A,| A,3/4 A,/4 A, C | C3/4 C/4 C3/2 D/2 | D/2 D/2 D B, | B, A, :|
A, | A,/2 C/2 B,3/2 A,/2 | A,/2 G,/2 G,3/2 C/2 | C/2 C/2 C3/2 C/2 | D/2 C/2 C
P:B
[V:S] C | F3/4F/4 F G | A3/4 A/4 A3/2 A/2 | G/2 A/2 B E | G F2|]
w:Oh Christ-mas tree, O Christ-mas tree Thou tree most fair and love-ly!
w:O Christ-mas tree, O Christ-mas tree! Thou hast a won-drous mes-sage
[V:A] C | C3/4 D/4 C D/2E/2 | F3/4 G/4 F3/2 ^F/2 | G/2 ^F/2 G C | C C2 |]
[V:T] B, | C3/4 D/4 C B, | C3/4 ^C/4 D3/2 D/2 | D/2 C/2 D C | B, A,2 |]


